X:1
T:Hangzhou, 87.87 D
T:Hangzhou, 87.87 D
T:Anthony Johnson Showalter, 1901
T:Public Domain Courtesy of the Cyber Hymnal™
C:Anthony Johnson Showalter, 1901
Z:Public Domain
Z:Courtesy of the Cyber Hymnal™
%%score ( 1 2 ) ( 3 4 )
L:1/8
Q:1/4=94
M:3/4
K:Eb
V:1 treble 
V:2 treble 
V:3 bass 
V:4 bass 
V:1
 [EG]>[EA] | [EB]3 [E=A] [Ec]>[EB] | [EB] [EG]3 [B,E]>[B,F] | [EG]3 [EF] [EA]>[EG] | %4
 [B,E]4 [EG]>[EG] | [DF]3 [EG] [FA]>[Ac] | [Ac] [GB]3 [EB]>[Ge] | [Fd]3 [DB] [Fd]>[Ec] | %8
 [DB]4 [DB]>[DB] | [DB]3 [DF] [DB]>[DA] | [EA] [EG]3 [DG]>[DG] | [DG]3 [B,D] [B,G]>[B,F] | %12
 [CE]4 E>E | [Ee]3!<(! [ce]!<)! [Bd]>!>(![Ac]!>)! | [Ac] [GB]3 [EG]>"^riten."[FB] | %15
 [GB]3 [FA] [EG][DF] | E4 |] %17
V:2
 x2 | x6 | x6 | x6 | x6 | x6 | x6 | x6 | x6 | x6 | x6 | x6 | x4 E>E | x6 | x6 | x6 | E4 |] %17
V:3
 E,>[E,F,] | [E,G,]3 [E,F,] [E,A,]>[E,G,] | [E,G,] [E,B,]3 [E,G,]>[E,A,] | %3
 [E,B,]3 [E,=A,] [E,C]>[E,B,] | [E,G,]4 [E,B,]>[E,B,] | [B,,B,]3 [B,,B,] [B,,D]>[B,,D] | %6
 [E,E] [E,E]3 [G,B,]>[E,B,] | [F,B,]3 [F,B,] [F,=A,]>[F,A,] | [B,,B,]4 [B,,F,]>[B,,F,] | %9
 [B,,F,]3 [B,,B,] [B,,B,]>[B,,B,] | [E,B,] [E,B,]3 [G,,=B,]>[G,,B,] | %11
 [G,,=B,]3 [G,,G,] [G,,G,]>[G,,G,] | [C,G,]4 [CE]>[B,_D] | [A,C]3 [A,E] [A,E]>[A,E] | %14
 [E,E] [E,E]3 [E,B,]>[D,B,] | [E,B,]3 [A,,C] [B,,B,][B,,A,] | [E,G,]4 |] %17
V:4
 E,3/2 x/ | x6 | x6 | x6 | x6 | x6 | x6 | x6 | x6 | x6 | x6 | x6 | x6 | x6 | x6 | x6 | x4 |] %17

